azure-patterns/svg-nodes-chain.svg

<svg xmlns="http://www.w3.org/2000/svg" viewBox="0 0 33 33">
                                
                            
  <path d="M28.4363 14.0872C28.997 14.0872 29.5233 14.1921 30.0152 14.4017C30.5072 14.6113 30.9382 14.8996 31.3085 15.2664C31.6788 15.6333 31.9697 16.0604 32.1813 16.5478C32.3929 17.0352 32.4986 17.5566 32.4986 18.1122C32.4986 18.6677 32.3929 19.1892 32.1813 19.6765C31.9697 20.1639 31.6788 20.5911 31.3085 20.9579C30.9382 21.3248 30.5072 21.613 30.0152 21.8226C29.5233 22.0323 28.997 22.1371 28.4363 22.1371C27.9074 22.1371 27.4102 22.0428 26.9447 21.8541C26.4792 21.6654 26.064 21.406 25.699 21.0758C25.334 20.7457 25.0352 20.3578 24.8024 19.9124C24.5697 19.4669 24.4322 18.9821 24.3899 18.4581L22.0096 18.065C21.7557 18.7882 21.3775 19.4407 20.875 20.0224C20.3725 20.6042 19.7827 21.0732 19.1057 21.4296L20.026 24.1653C20.0789 24.1548 20.1265 24.1496 20.1688 24.1496C20.2112 24.1496 20.2588 24.1496 20.3117 24.1496C20.8724 24.1496 21.3987 24.2544 21.8906 24.464C22.3825 24.6736 22.8136 24.9619 23.1839 25.3287C23.5541 25.6956 23.845 26.1227 24.0566 26.6101C24.2682 27.0975 24.374 27.619 24.374 28.1745C24.374 28.73 24.2682 29.2515 24.0566 29.7389C23.845 30.2262 23.5541 30.6534 23.1839 31.0202C22.8136 31.3871 22.3825 31.6753 21.8906 31.885C21.3987 32.0946 20.8724 32.1994 20.3117 32.1994C19.751 32.1994 19.2247 32.0946 18.7328 31.885C18.2408 31.6753 17.8097 31.3871 17.4395 31.0202C17.0692 30.6534 16.7783 30.2262 16.5667 29.7389C16.3551 29.2515 16.2493 28.73 16.2493 28.1745C16.2493 27.4827 16.416 26.8381 16.7492 26.2406C17.0824 25.6432 17.5347 25.161 18.1059 24.7942L17.1856 22.0585C17.0375 22.0794 16.8841 22.0978 16.7254 22.1135C16.5667 22.1292 16.408 22.1371 16.2493 22.1371C15.2761 22.1371 14.3583 21.9196 13.4962 21.4846C12.634 21.0496 11.912 20.4443 11.3301 19.6687L8.02947 21.2881C8.09295 21.5711 8.12468 21.8541 8.12468 22.1371C8.12468 22.6926 8.01889 23.2141 7.80731 23.7015C7.59574 24.1889 7.30481 24.616 6.93455 24.9828C6.56429 25.3497 6.13319 25.6379 5.64127 25.8476C5.14935 26.0572 4.62304 26.162 4.06236 26.162C3.50167 26.162 2.97537 26.0572 2.48345 25.8476C1.99152 25.6379 1.56043 25.3497 1.19017 24.9828C0.819901 24.616 0.528979 24.1889 0.3174 23.7015C0.10582 23.2141 3.05176e-05 22.6926 3.05176e-05 22.1371C3.05176e-05 21.5816 0.10582 21.0601 0.3174 20.5727C0.528979 20.0853 0.819901 19.6582 1.19017 19.2913C1.56043 18.9245 1.99152 18.6363 2.48345 18.4266C2.97537 18.217 3.50167 18.1122 4.06236 18.1122C4.65478 18.1122 5.21547 18.2327 5.74441 18.4738C6.27336 18.7149 6.73355 19.0555 7.12497 19.4957L10.4256 17.8606C10.2458 17.2736 10.1558 16.6867 10.1558 16.0997C10.1558 15.3555 10.2881 14.6375 10.5526 13.9457C10.817 13.254 11.2032 12.6303 11.711 12.0748L9.79087 9.70071C9.25135 9.94179 8.69595 10.0623 8.12468 10.0623C7.564 10.0623 7.03769 9.95751 6.54577 9.74788C6.05385 9.53825 5.62276 9.25 5.25249 8.88315C4.88223 8.51629 4.59131 8.08917 4.37973 7.60177C4.16815 7.11438 4.06236 6.59292 4.06236 6.0374C4.06236 5.48188 4.16815 4.96042 4.37973 4.47303C4.59131 3.98564 4.88223 3.55851 5.25249 3.19165C5.62276 2.8248 6.05385 2.53656 6.54577 2.32693C7.03769 2.11729 7.564 2.01248 8.12468 2.01248C8.68537 2.01248 9.21167 2.11729 9.7036 2.32693C10.1955 2.53656 10.6266 2.8248 10.9969 3.19165C11.3671 3.55851 11.6581 3.98564 11.8696 4.47303C12.0812 4.96042 12.187 5.48188 12.187 6.0374C12.187 6.92834 11.9172 7.73018 11.3777 8.44292L13.2819 10.817C13.7368 10.5759 14.2155 10.3899 14.718 10.2589C15.2205 10.1278 15.731 10.0623 16.2493 10.0623C17.1274 10.0623 17.9578 10.2353 18.7407 10.5812L21.3431 6.71346C21.0152 6.34661 20.7613 5.93259 20.5814 5.4714C20.4016 5.01021 20.3117 4.52806 20.3117 4.02494C20.3117 3.46942 20.4175 2.94796 20.629 2.46056C20.8406 1.97317 21.1315 1.54605 21.5018 1.17919C21.8721 0.812339 22.3032 0.524095 22.7951 0.314463C23.287 0.104832 23.8133 1.72553e-05 24.374 1.72553e-05C24.9347 1.72553e-05 25.461 0.104832 25.9529 0.314463C26.4448 0.524095 26.8759 0.812339 27.2462 1.17919C27.6164 1.54605 27.9074 1.97317 28.1189 2.46056C28.3305 2.94796 28.4363 3.46942 28.4363 4.02494C28.4363 4.58046 28.3305 5.10192 28.1189 5.58932C27.9074 6.07671 27.6164 6.50383 27.2462 6.87069C26.8759 7.23754 26.4448 7.52578 25.9529 7.73542C25.461 7.94505 24.9347 8.04986 24.374 8.04986C23.9297 8.04986 23.4854 7.97649 23.041 7.82975L20.4227 11.7132C21.0363 12.2792 21.5097 12.9421 21.843 13.7021C22.1762 14.462 22.3428 15.2559 22.3428 16.084L24.7231 16.477C24.8818 16.1207 25.0907 15.7931 25.3499 15.4944C25.6091 15.1957 25.9 14.9441 26.2227 14.7397C26.5453 14.5353 26.8944 14.3755 27.27 14.2602C27.6455 14.1449 28.0343 14.0872 28.4363 14.0872ZM24.374 2.01248C24.0884 2.01248 23.8239 2.06489 23.5806 2.1697C23.3373 2.27452 23.123 2.41864 22.9379 2.60207C22.7528 2.78549 22.6073 2.99775 22.5015 3.23882C22.3957 3.4799 22.3428 3.74194 22.3428 4.02494C22.3428 4.30794 22.3957 4.56998 22.5015 4.81106C22.6073 5.05213 22.7528 5.26439 22.9379 5.44781C23.123 5.63124 23.3373 5.77536 23.5806 5.88018C23.8239 5.98499 24.0884 6.0374 24.374 6.0374C24.6596 6.0374 24.9241 5.98499 25.1674 5.88018C25.4107 5.77536 25.625 5.63124 25.8101 5.44781C25.9952 5.26439 26.1407 5.05213 26.2465 4.81106C26.3523 4.56998 26.4052 4.30794 26.4052 4.02494C26.4052 3.74194 26.3523 3.4799 26.2465 3.23882C26.1407 2.99775 25.9952 2.78549 25.8101 2.60207C25.625 2.41864 25.4107 2.27452 25.1674 2.1697C24.9241 2.06489 24.6596 2.01248 24.374 2.01248ZM4.06236 24.1496C4.34799 24.1496 4.61246 24.0971 4.85578 23.9923C5.0991 23.8875 5.31332 23.7434 5.49845 23.56C5.68359 23.3765 5.82905 23.1643 5.93484 22.9232C6.04063 22.6821 6.09352 22.4201 6.09352 22.1371C6.09352 21.8541 6.04063 21.5921 5.93484 21.351C5.82905 21.1099 5.68359 20.8976 5.49845 20.7142C5.31332 20.5308 5.0991 20.3867 4.85578 20.2819C4.61246 20.177 4.34799 20.1246 4.06236 20.1246C3.77672 20.1246 3.51225 20.177 3.26893 20.2819C3.02562 20.3867 2.81139 20.5308 2.62626 20.7142C2.44113 20.8976 2.29567 21.1099 2.18988 21.351C2.08409 21.5921 2.03119 21.8541 2.03119 22.1371C2.03119 22.4201 2.08409 22.6821 2.18988 22.9232C2.29567 23.1643 2.44113 23.3765 2.62626 23.56C2.81139 23.7434 3.02562 23.8875 3.26893 23.9923C3.51225 24.0971 3.77672 24.1496 4.06236 24.1496ZM22.3428 28.1745C22.3428 27.8915 22.2899 27.6294 22.1841 27.3884C22.0784 27.1473 21.9329 26.935 21.7478 26.7516C21.5626 26.5682 21.3484 26.4241 21.1051 26.3192C20.8618 26.2144 20.5973 26.162 20.3117 26.162C20.026 26.162 19.7616 26.2144 19.5182 26.3192C19.2749 26.4241 19.0607 26.5682 18.8756 26.7516C18.6904 26.935 18.545 27.1473 18.4392 27.3884C18.3334 27.6294 18.2805 27.8915 18.2805 28.1745C18.2805 28.4575 18.3334 28.7195 18.4392 28.9606C18.545 29.2017 18.6904 29.4139 18.8756 29.5974C19.0607 29.7808 19.2749 29.9249 19.5182 30.0297C19.7616 30.1345 20.026 30.1869 20.3117 30.1869C20.5973 30.1869 20.8618 30.1345 21.1051 30.0297C21.3484 29.9249 21.5626 29.7808 21.7478 29.5974C21.9329 29.4139 22.0784 29.2017 22.1841 28.9606C22.2899 28.7195 22.3428 28.4575 22.3428 28.1745ZM6.09352 6.0374C6.09352 6.32041 6.14642 6.58244 6.25221 6.82352C6.35799 7.06459 6.50346 7.27685 6.68859 7.46028C6.87372 7.6437 7.08794 7.78782 7.33126 7.89264C7.57458 7.99746 7.83905 8.04986 8.12468 8.04986C8.41032 8.04986 8.67479 7.99746 8.91811 7.89264C9.16142 7.78782 9.37565 7.6437 9.56078 7.46028C9.74591 7.27685 9.89137 7.06459 9.99716 6.82352C10.103 6.58244 10.1558 6.32041 10.1558 6.0374C10.1558 5.7544 10.103 5.49236 9.99716 5.25128C9.89137 5.01021 9.74591 4.79796 9.56078 4.61453C9.37565 4.4311 9.16142 4.28698 8.91811 4.18216C8.67479 4.07735 8.41032 4.02494 8.12468 4.02494C7.83905 4.02494 7.57458 4.07735 7.33126 4.18216C7.08794 4.28698 6.87372 4.4311 6.68859 4.61453C6.50346 4.79796 6.35799 5.01021 6.25221 5.25128C6.14642 5.49236 6.09352 5.7544 6.09352 6.0374ZM16.2493 20.1246C16.81 20.1246 17.3363 20.0198 17.8282 19.8102C18.3202 19.6006 18.7513 19.3123 19.1215 18.9455C19.4918 18.5786 19.7827 18.1515 19.9943 17.6641C20.2059 17.1767 20.3117 16.6552 20.3117 16.0997C20.3117 15.5442 20.2059 15.0227 19.9943 14.5353C19.7827 14.0479 19.4918 13.6208 19.1215 13.254C18.7513 12.8871 18.3202 12.5989 17.8282 12.3892C17.3363 12.1796 16.81 12.0748 16.2493 12.0748C15.6887 12.0748 15.1623 12.1796 14.6704 12.3892C14.1785 12.5989 13.7474 12.8871 13.3771 13.254C13.0069 13.6208 12.716 14.0479 12.5044 14.5353C12.2928 15.0227 12.187 15.5442 12.187 16.0997C12.187 16.6552 12.2928 17.1767 12.5044 17.6641C12.716 18.1515 13.0069 18.5786 13.3771 18.9455C13.7474 19.3123 14.1785 19.6006 14.6704 19.8102C15.1623 20.0198 15.6887 20.1246 16.2493 20.1246ZM28.4363 20.1246C28.722 20.1246 28.9864 20.0722 29.2297 19.9674C29.4731 19.8626 29.6873 19.7185 29.8724 19.535C30.0575 19.3516 30.203 19.1394 30.3088 18.8983C30.4146 18.6572 30.4675 18.3952 30.4675 18.1122C30.4675 17.8292 30.4146 17.5671 30.3088 17.3261C30.203 17.085 30.0575 16.8727 29.8724 16.6893C29.6873 16.5059 29.4731 16.3617 29.2297 16.2569C28.9864 16.1521 28.722 16.0997 28.4363 16.0997C28.1507 16.0997 27.8862 16.1521 27.6429 16.2569C27.3996 16.3617 27.1854 16.5059 27.0002 16.6893C26.8151 16.8727 26.6696 17.085 26.5638 17.3261C26.458 17.5671 26.4052 17.8292 26.4052 18.1122C26.4052 18.3952 26.458 18.6572 26.5638 18.8983C26.6696 19.1394 26.8151 19.3516 27.0002 19.535C27.1854 19.7185 27.3996 19.8626 27.6429 19.9674C27.8862 20.0722 28.1507 20.1246 28.4363 20.1246Z"></path>
</svg>

<svg xmlns="http://www.w3.org/2000/svg" viewBox="0 0 33 33"><path d="M28.436 14.087c.561 0 1.087.105 1.58.315a4.064 4.064 0 0 1 2.166 2.146c.21.487.317 1.009.317 1.564 0 .556-.106 1.077-.318 1.565a4.063 4.063 0 0 1-2.166 2.146 3.984 3.984 0 0 1-1.579.314 3.932 3.932 0 0 1-1.491-.283 4.14 4.14 0 0 1-2.142-1.942 3.76 3.76 0 0 1-.413-1.454l-2.38-.393a6.019 6.019 0 0 1-1.135 1.957 6.03 6.03 0 0 1-1.77 1.408l.921 2.735a.74.74 0 0 1 .143-.015h.143c.56 0 1.087.104 1.579.314a4.065 4.065 0 0 1 2.166 2.146c.211.488.317 1.009.317 1.564 0 .556-.106 1.078-.317 1.565a4.065 4.065 0 0 1-2.166 2.146 3.985 3.985 0 0 1-1.58.314c-.56 0-1.086-.104-1.578-.314a4.063 4.063 0 0 1-2.166-2.146 3.886 3.886 0 0 1-.318-1.565c0-.691.167-1.336.5-1.933a4.018 4.018 0 0 1 1.357-1.447l-.92-2.736c-.148.021-.302.04-.46.055a4.833 4.833 0 0 1-.477.024 6.029 6.029 0 0 1-2.753-.652 6.12 6.12 0 0 1-2.166-1.816l-3.3 1.62c.063.282.095.565.095.848 0 .556-.106 1.077-.318 1.564a4.062 4.062 0 0 1-2.166 2.147 3.986 3.986 0 0 1-1.579.314c-.56 0-1.087-.105-1.579-.314a4.062 4.062 0 0 1-2.166-2.146A3.886 3.886 0 0 1 0 22.136c0-.555.106-1.077.317-1.564a4.064 4.064 0 0 1 2.166-2.146 3.985 3.985 0 0 1 1.58-.315c.592 0 1.152.12 1.681.362.53.24.99.581 1.381 1.022l3.3-1.635a5.985 5.985 0 0 1 .128-3.915 5.845 5.845 0 0 1 1.158-1.871L9.791 9.7a4.044 4.044 0 0 1-1.666.361c-.561 0-1.087-.104-1.58-.314A4.063 4.063 0 0 1 4.38 7.602a3.886 3.886 0 0 1-.317-1.565c0-.555.106-1.077.318-1.564a4.063 4.063 0 0 1 2.166-2.146 3.985 3.985 0 0 1 1.579-.315c.56 0 1.087.105 1.579.315a4.063 4.063 0 0 1 2.166 2.146c.211.487.317 1.009.317 1.564 0 .891-.27 1.693-.81 2.406l1.905 2.374a6.624 6.624 0 0 1 1.436-.558 6.042 6.042 0 0 1 1.531-.197c.878 0 1.709.173 2.492.52l2.602-3.869a4.065 4.065 0 0 1-.762-1.242 3.947 3.947 0 0 1-.27-1.446c0-.556.107-1.077.318-1.564A4.063 4.063 0 0 1 22.795.314 3.985 3.985 0 0 1 24.374 0c.56 0 1.087.105 1.579.314a4.063 4.063 0 0 1 2.166 2.146c.212.488.317 1.01.317 1.565 0 .555-.105 1.077-.317 1.564a4.063 4.063 0 0 1-2.166 2.146 3.985 3.985 0 0 1-1.579.315 4.23 4.23 0 0 1-1.333-.22l-2.618 3.883a5.905 5.905 0 0 1 1.42 1.99c.333.759.5 1.553.5 2.381l2.38.393c.159-.356.368-.684.627-.983.26-.298.55-.55.873-.754a4.31 4.31 0 0 1 1.047-.48 3.951 3.951 0 0 1 1.166-.173zM24.374 2.012c-.286 0-.55.053-.793.158a2.065 2.065 0 0 0-1.08 1.069 1.934 1.934 0 0 0-.158.786c0 .283.053.545.159.786a2.045 2.045 0 0 0 1.079 1.07c.243.104.507.156.793.156.286 0 .55-.052.793-.157a2.065 2.065 0 0 0 1.08-1.069c.105-.241.158-.503.158-.786 0-.283-.053-.545-.159-.786a2.045 2.045 0 0 0-1.079-1.07 1.984 1.984 0 0 0-.793-.157zM4.062 24.15c.286 0 .55-.053.794-.158a2.065 2.065 0 0 0 1.079-1.069c.106-.24.159-.503.159-.786 0-.283-.053-.545-.16-.786a2.044 2.044 0 0 0-1.078-1.07 1.983 1.983 0 0 0-.794-.156c-.285 0-.55.052-.793.157a2.065 2.065 0 0 0-1.08 1.069 1.935 1.935 0 0 0-.158.786c0 .283.053.545.159.786a2.045 2.045 0 0 0 1.872 1.227zm18.28 4.024c0-.282-.052-.545-.158-.786a2.043 2.043 0 0 0-1.079-1.069 1.984 1.984 0 0 0-.793-.157c-.286 0-.55.052-.794.157a2.067 2.067 0 0 0-1.079 1.07 1.934 1.934 0 0 0-.159.785c0 .284.053.546.16.787a2.044 2.044 0 0 0 1.078 1.069c.244.104.508.157.794.157.285 0 .55-.053.793-.157a2.066 2.066 0 0 0 1.08-1.07c.105-.24.158-.503.158-.786zM6.095 6.037c0 .283.052.545.158.787a2.044 2.044 0 0 0 1.08 1.069c.243.104.507.157.793.157.285 0 .55-.053.793-.157a2.065 2.065 0 0 0 1.08-1.07c.105-.24.158-.503.158-.786 0-.283-.053-.545-.159-.786a2.045 2.045 0 0 0-1.079-1.069 1.984 1.984 0 0 0-.793-.157c-.286 0-.55.052-.794.157a2.065 2.065 0 0 0-1.079 1.07 1.935 1.935 0 0 0-.158.785zm10.155 14.088c.561 0 1.087-.105 1.58-.315a4.064 4.064 0 0 0 2.166-2.146 3.886 3.886 0 0 0 .317-1.564c0-.556-.106-1.077-.318-1.565a4.062 4.062 0 0 0-2.166-2.146 3.985 3.985 0 0 0-1.579-.314c-.56 0-1.087.105-1.579.314a4.063 4.063 0 0 0-2.166 2.146 3.886 3.886 0 0 0-.317 1.565c0 .555.106 1.077.317 1.564a4.065 4.065 0 0 0 2.166 2.146c.492.21 1.019.315 1.58.315zm12.187 0c.286 0 .55-.053.794-.158a2.063 2.063 0 0 0 1.079-1.069c.106-.24.159-.503.159-.786 0-.283-.053-.545-.16-.786a2.045 2.045 0 0 0-1.078-1.07 1.984 1.984 0 0 0-.794-.156c-.285 0-.55.052-.793.157a2.067 2.067 0 0 0-1.08 1.07 1.934 1.934 0 0 0-.158.785c0 .283.053.545.159.786a2.044 2.044 0 0 0 1.079 1.07c.243.104.508.157.793.157z"/></svg>
